X:108
T:Garland of Love,The. JGi.108
O:Tealby,Lincolnshire
M:3/4
L:1/4
Q:3/4=60
S:Joshua Gibbons MS,1823,Tealby,Lincs.
R:waltz
Z:VMP/R.Greig, 2009
K:D
A|AFA|Add|f> ed|dcB|AFA|
AdF|E> DE|E2A|AFA|Add|
f> ed|afd|B> cd|Ade|f> ge|
d2:|d/e/|f> ed|DFA|f> ed|DFA|
f> ed|afd|Bed|(dc)(3A/B/c/|d>cd|
BGd|AFD|d> cd|BGd|AFd|
AFD|DFA|dfa|A> Bc|d2:|

